X: 1
T: Window Pain
R: reel
M: 4/4
L: 1/8
K: Amin
|:EFAB cBAF|EFAc a2a2|EFAB cBAF|EFED CA,A,2|
EFAB cBAF|EFAc a2a2|EFAB cBAB|cBAG EAA2:|
|:afeg fedf|edBc e2e2|afeg fedB|cBAG EA A2|
afeg fedf|edBc e2e2fedB cBAB|cBAG EAA2:|

